X: 186
T: Tom Ward's Downfall
R: reel
M: C|
L: 1/8
K:Gmaj
"G"BGGA GEDG|EDEG "D"A2GE|DEGA "G"B3d|ed~d2 Bdgd|
"G"BGGA GEDG|EDEG "D"A2GE|DEGA "G"B3d|eddc BGG2:|
"G"dggf gedg|"D"eaag a2ga|"G"bg~g2 "D"agef|"G"gedc BGG2|
"G"dggf gedg|"D"eaag a2ga|"G"bg~g2 "D"agef|"G"gedc BGG2|
"G"dggf gedg|"D"eaag a2ga|"G"bg~g2 "D"agef|"G"gedc BGG2|
"G"dggf gedg|"D"eaag a2ga|"G"bg~g2 "D"agef|"G"gaba gedc|]


